X:7
T:Dever the Dancer
Z: id:dc-slipjig-6
M:9/8
L:1/8
K:E Dorian
BEE BEE G2A|BEE BAG FGA|BEE BEE G2A|Bcd ABG FED:|!
ded dAF G2A|ded def gfe|ded dAF G2A|Bcd ABG FED|!
ded dAF G2A|ded def gfe|afa gec d2A|Bcd AGF FED|]!

